Newaita-dark/.DP/24/skype-status-offline.svg

<svg xmlns="http://www.w3.org/2000/svg" xmlns:xlink="http://www.w3.org/1999/xlink" width="24px" height="24px" viewBox="0 0 24 24" version="1.1">
<g id="surface1">
<path style=" stroke:none;fill-rule:nonzero;fill:rgb(93.333334%,93.333334%,93.333334%);fill-opacity:0.392157;" d="M 8.046875 3.148438 C 5.695312 3.148438 3.804688 5.042969 3.804688 7.390625 C 3.804688 8.101562 3.976562 8.773438 4.28125 9.359375 C 3.972656 10.214844 3.804688 11.140625 3.804688 12.105469 C 3.804688 16.546875 7.375 20.117188 11.816406 20.117188 C 12.164062 20.117188 12.5 20.097656 12.835938 20.054688 C 13.578125 20.683594 14.535156 21.0625 15.585938 21.0625 C 17.9375 21.0625 19.828125 19.171875 19.828125 16.820312 C 19.828125 16.109375 19.65625 15.4375 19.351562 14.851562 C 19.660156 13.996094 19.828125 13.070312 19.828125 12.105469 C 19.828125 7.664062 16.257812 4.09375 11.816406 4.09375 C 11.46875 4.09375 11.128906 4.117188 10.796875 4.15625 C 10.054688 3.527344 9.09375 3.148438 8.046875 3.148438 Z M 9.804688 8.996094 C 10.054688 8.996094 10.3125 9.09375 10.503906 9.289062 L 11.90625 10.691406 L 13.3125 9.289062 C 13.699219 8.898438 14.328125 8.898438 14.714844 9.289062 C 15.101562 9.679688 15.101562 10.304688 14.714844 10.691406 L 13.3125 12.09375 L 14.714844 13.5 C 15.101562 13.886719 15.101562 14.515625 14.714844 14.902344 C 14.328125 15.289062 13.699219 15.289062 13.3125 14.902344 L 11.90625 13.5 L 10.503906 14.902344 C 10.117188 15.289062 9.492188 15.289062 9.101562 14.902344 C 8.710938 14.515625 8.710938 13.886719 9.101562 13.5 L 10.503906 12.09375 L 9.101562 10.691406 C 8.710938 10.304688 8.710938 9.679688 9.101562 9.289062 C 9.296875 9.09375 9.546875 8.996094 9.804688 8.996094 Z M 9.804688 8.996094 "/>
</g>
</svg>

<svg xmlns="http://www.w3.org/2000/svg" width="32" height="32" viewBox="0 0 24 24"><path d="M8.043 3.148a4.236 4.236 0 0 0-4.242 4.243c0 .71.176 1.382.48 1.968a8.084 8.084 0 0 0-.48 2.746 7.997 7.997 0 0 0 9.035 7.95 4.234 4.234 0 0 0 2.75 1.008 4.231 4.231 0 0 0 4.242-4.243c0-.71-.172-1.379-.48-1.968a7.99 7.99 0 0 0 .48-2.747 7.995 7.995 0 0 0-8.012-8.011c-.347 0-.687.02-1.023.062a4.218 4.218 0 0 0-2.75-1.008zm1.758 5.848c.254 0 .508.098.703.293l1.402 1.402 1.406-1.402a.993.993 0 0 1 1.402 1.402l-1.402 1.403 1.403 1.406a.993.993 0 0 1-1.402 1.402L11.905 13.5l-1.402 1.402A.993.993 0 0 1 9.102 13.5l1.402-1.406-1.402-1.403a.986.986 0 0 1 0-1.402.982.982 0 0 1 .699-.293zm0 0" fill="#bdbdbd" fill-opacity=".392"/></svg>
